src/assets/icons/charity.svg

<svg width="24" height="24" viewBox="0 0 24 24" fill="none" xmlns="http://www.w3.org/2000/svg">
<g clip-path="url(#clip0)">
<path d="M18.8998 1.26688C18.3027 0.704908 17.5386 0.435059 16.7684 0.435059C15.9015 0.435059 15.026 0.776868 14.3732 1.4305L14.093 1.71063L13.8129 1.42965C13.1601 0.776868 12.2846 0.435059 11.4177 0.435059C10.6475 0.435059 9.88339 0.704908 9.28629 1.26688C7.97302 2.50305 7.94989 4.57104 9.21605 5.83719L14.093 10.7142L18.97 5.83719C20.2362 4.57104 20.2131 2.50305 18.8998 1.26688ZM18.3644 5.23152L14.093 9.50286L9.82171 5.23152C9.37282 4.78263 9.13124 4.18554 9.14066 3.55075C9.15008 2.91596 9.41051 2.32657 9.87396 1.89053C10.2835 1.50418 10.8317 1.29172 11.4177 1.29172C12.0816 1.29172 12.7344 1.56329 13.2064 2.03531L13.4865 2.31629L14.0922 2.92196L14.6978 2.31629L14.978 2.03616C15.4509 1.56329 16.1028 1.29172 16.7676 1.29172C17.3535 1.29172 17.9018 1.50418 18.3121 1.89053C18.7756 2.32657 19.036 2.91596 19.0454 3.55075C19.0549 4.18554 18.8133 4.78263 18.3644 5.23152Z" fill="white"/>
<path d="M23.6868 13.1975C22.9372 12.6895 22.054 12.8334 21.2719 13.2849C20.4897 13.7363 15.9991 17.5759 15.9991 17.5759L11.5787 17.5768C11.3731 17.5768 11.1504 17.3455 11.1504 17.1407C11.1504 16.9 11.3602 16.7124 11.5787 16.7124H14.2832C15.2298 16.7124 16.2895 16.0956 16.2895 14.9991C16.2895 13.834 15.2298 13.2857 14.2832 13.2857C12.641 13.2857 12.3214 13.2926 12.3214 13.2926C11.6635 13.2926 10.9962 13.2532 10.4822 12.9782C9.79683 12.627 9.00698 12.4282 8.16402 12.4282C6.74881 12.4282 5.4818 12.9928 4.61314 13.8828L0 18.4249L5.13999 23.5649L6.85332 21.8515H15.5288C16.3923 21.8515 17.2258 21.5346 17.8709 20.9615L23.7451 14.372C24.104 14.0533 24.0834 13.4674 23.6868 13.1975ZM17.267 20.3498C16.7829 20.7653 16.167 20.994 15.5288 20.994L6.4387 20.9957L5.13999 22.3527L1.21646 18.4292L5.22652 14.4808C5.96753 13.7209 7.03836 13.2849 8.16402 13.2849C8.8425 13.2849 9.50984 13.4417 10.0778 13.7312C10.7614 14.097 11.5598 14.1475 12.3214 14.1475C12.3214 14.1475 12.6495 14.1407 14.2832 14.1407C14.2943 14.1407 15.4328 14.1501 15.4328 14.9974C15.4328 15.5816 14.7466 15.854 14.2832 15.854H11.5076C10.9105 15.854 10.28 16.2866 10.28 17.1964C10.28 17.8732 10.8274 18.424 11.5076 18.424L16.3032 18.4232C16.3032 18.4232 21.349 14.2169 21.7559 13.9942C22.1628 13.7715 22.6588 13.6241 23.0786 13.8306L17.267 20.3498Z" fill="white"/>
</g>
<defs>
<clipPath id="clip0">
<rect width="24" height="24" fill="white"/>
</clipPath>
</defs>
</svg>

<svg xmlns="http://www.w3.org/2000/svg" width="24" height="24" fill="none" xmlns:v="https://vecta.io/nano"><g clip-path="url(#A)" fill="#fff"><path d="M18.9 1.267c-.597-.562-1.361-.832-2.131-.832a3.4 3.4 0 0 0-2.395.995l-.28.28-.28-.281a3.4 3.4 0 0 0-2.395-.995c-.77 0-1.534.27-2.131.832-1.313 1.236-1.336 3.304-.07 4.57l4.877 4.877 4.877-4.877c1.266-1.266 1.243-3.334-.07-4.57zm-.535 3.965l-4.271 4.271-4.271-4.271a2.31 2.31 0 0 1-.681-1.681 2.31 2.31 0 0 1 .733-1.66c.41-.386.958-.599 1.544-.599a2.55 2.55 0 0 1 1.789.744l.28.281.606.606.606-.606.28-.28a2.55 2.55 0 0 1 1.79-.744c.586 0 1.134.212 1.544.599a2.31 2.31 0 0 1 .733 1.66 2.31 2.31 0 0 1-.681 1.681zm5.322 7.966c-.75-.508-1.633-.364-2.415.087s-5.273 4.291-5.273 4.291l-4.42.001c-.206 0-.428-.231-.428-.436a.44.44 0 0 1 .428-.428h2.705c.947 0 2.006-.617 2.006-1.713 0-1.165-1.06-1.713-2.006-1.713l-1.962.007c-.658 0-1.325-.039-1.839-.314-.685-.351-1.475-.55-2.318-.55-1.415 0-2.682.565-3.551 1.455L0 18.425l5.14 5.14 1.713-1.713h8.675a3.53 3.53 0 0 0 2.342-.89l5.874-6.59c.359-.319.338-.905-.058-1.174zm-6.42 7.152a2.67 2.67 0 0 1-1.738.644l-9.09.002-1.299 1.357-3.924-3.923 4.01-3.948c.741-.76 1.812-1.196 2.938-1.196a4.25 4.25 0 0 1 1.914.446c.684.366 1.482.416 2.244.416l1.962-.007c.011 0 1.15.009 1.15.857 0 .584-.686.857-1.15.857h-2.776c-.597 0-1.228.433-1.228 1.342 0 .677.547 1.228 1.228 1.228l4.796-.001 5.453-4.429c.407-.223.903-.37 1.323-.164l-5.812 6.519z"/></g><defs><clipPath id="A"><path fill="#fff" d="M0 0h24v24H0z"/></clipPath></defs></svg>
